brandFactory_export/2.Regular/Coche acelerando velocidad_2Regular.svg

<?xml version="1.0" encoding="UTF-8"?>
<svg width="24px" height="24px" viewBox="0 0 24 24" version="1.1" xmlns="http://www.w3.org/2000/svg" xmlns:xlink="http://www.w3.org/1999/xlink">
    <title>2.Regular/Coche acelerando velocidad_2Regular</title>
    <g id="Symbols" stroke="none" stroke-width="1" fill="none" fill-rule="evenodd">
        <g id="2.Regular/Coche-acelerando-velocidad_2Regular" fill="#5CB615" fill-rule="nonzero">
            <path d="M22.0504202,14.4336134 C22.2016807,14.1915966 22.3764706,13.6201681 21.7478992,12.5882353 C20.7226891,10.9109244 18.6487395,10.7462185 18.6285714,10.7428571 C18.3932773,10.7260504 18.1815126,10.5983193 18.0571429,10.3932773 C17.9865546,10.2756303 16.2218487,7.46218487 11.9058824,7.46218487 C10.1445378,7.44201681 8.45042017,8.14453782 7.21680672,9.40504202 C6.04705882,10.5848739 5.44201681,12.0470588 5.4487395,12.8806723 C5.41848739,13.3983193 5.42857143,13.9159664 5.48235294,14.4302521 L6.43697479,14.4302521 C6.69579832,13.2 7.63697479,12.4571429 9.03193277,12.4571429 C10.4302521,12.4571429 11.3680672,13.2 11.6268908,14.4302521 L14.7563025,14.4302521 C15.0151261,13.2067227 15.9563025,12.4638655 17.3512605,12.4638655 C18.7462185,12.4638655 19.6840336,13.2033613 19.9462185,14.4302521 L22.0504202,14.4336134 L22.0504202,14.4336134 Z M17.3478992,16.3932773 C18.1915966,16.3932773 18.5848739,16 18.5848739,15.1529412 C18.5848739,14.3058824 18.1915966,13.9092437 17.3478992,13.9092437 C16.5042017,13.9092437 16.1109244,14.302521 16.1109244,15.1529412 C16.1109244,16 16.5042017,16.3932773 17.3478992,16.3932773 Z M9.02857143,16.3865546 C9.87226891,16.3865546 10.2655462,15.9932773 10.2655462,15.1428571 C10.2655462,14.2957983 9.87226891,13.902521 9.02857143,13.902521 C8.18487395,13.902521 7.79159664,14.2957983 7.79159664,15.1428571 C7.79159664,15.989916 8.18487395,16.3865546 9.02857143,16.3865546 Z M22.9714286,11.8386555 C24.2252101,13.8991597 23.394958,15.2907563 22.7798319,15.7378151 C22.6554622,15.8285714 22.507563,15.8756303 22.3563025,15.8756303 L19.9394958,15.8756303 C19.6773109,17.0957983 18.7394958,17.8352941 17.3478992,17.8352941 C15.9563025,17.8352941 15.0184874,17.0991597 14.7563025,15.8756303 L11.6168067,15.8756303 C11.3512605,17.092437 10.4134454,17.8252101 9.02857143,17.8252101 C7.64033613,17.8252101 6.70252101,17.092437 6.44033613,15.8756303 L4.86722689,15.8756303 C4.53445378,15.8756303 4.24537815,15.6504202 4.16806723,15.3277311 C4.15798319,15.287395 3.92605042,14.3092437 4.01008403,12.8504202 C4,11.7647059 4.67226891,9.93613445 6.19495798,8.39663866 C7.26386555,7.31428571 9.12605042,6.02352941 11.9058824,6.02352941 C16.2319328,6.02352941 18.4302521,8.47058824 19.0823529,9.3512605 C19.8890756,9.48235294 21.8420168,9.98655462 22.9714286,11.8386555 Z M2.79663866,13.0588235 C3.19327731,13.0588235 3.51596639,13.3815126 3.51596639,13.7781513 C3.51596639,14.1747899 3.19327731,14.497479 2.79663866,14.497479 L1.2302521,14.497479 C0.833613445,14.497479 0.51092437,14.1747899 0.51092437,13.7781513 C0.51092437,13.3815126 0.830252101,13.0588235 1.2302521,13.0588235 L2.79663866,13.0588235 Z M3.09915966,10.6588235 C3.49579832,10.6588235 3.81848739,10.9815126 3.81848739,11.3781513 C3.81848739,11.7747899 3.49579832,12.097479 3.09915966,12.097479 L0.719327731,12.097479 C0.322689076,12.1008403 0,11.7781513 0,11.3781513 C0,10.9781513 0.322689076,10.6588235 0.719327731,10.6588235 L3.09915966,10.6588235 Z M4.57478992,9.01176471 C4.57478992,9.40840336 4.25210084,9.73109244 3.85546218,9.73109244 L2.00672269,9.73109244 C1.61008403,9.73109244 1.28739496,9.40840336 1.28739496,9.01176471 C1.28739496,8.61512605 1.61008403,8.29243697 2.00672269,8.29243697 L3.85546218,8.29243697 C4.25210084,8.28907563 4.57478992,8.61176471 4.57478992,9.01176471 Z" id="Coche-acelerando-velocidad_2Regular"></path>
        </g>
    </g>
</svg>

<svg width="24" height="24" viewBox="0 0 24 24" xmlns="http://www.w3.org/2000/svg"><path d="M22.05 14.434c.152-.242.326-.814-.302-1.846-1.025-1.677-3.1-1.842-3.12-1.845a.726.726 0 01-.57-.35c-.071-.117-1.836-2.93-6.152-2.93a6.46 6.46 0 00-4.69 1.942c-1.169 1.18-1.774 2.642-1.767 3.476-.03.517-.02 1.035.033 1.55h.955c.259-1.231 1.2-1.974 2.595-1.974 1.398 0 2.336.743 2.595 1.973h3.13c.258-1.223 1.2-1.966 2.594-1.966 1.395 0 2.333.74 2.595 1.966l2.104.004zm-4.702 1.96c.844 0 1.237-.394 1.237-1.241 0-.847-.393-1.244-1.237-1.244-.844 0-1.237.394-1.237 1.244 0 .847.393 1.24 1.237 1.24zm-8.32-.007c.844 0 1.238-.394 1.238-1.244 0-.847-.394-1.24-1.237-1.24-.844 0-1.237.393-1.237 1.24s.393 1.244 1.237 1.244zm13.943-4.548c1.254 2.06.424 3.452-.191 3.899a.717.717 0 01-.424.138H19.94c-.262 1.22-1.2 1.96-2.591 1.96-1.392 0-2.33-.737-2.592-1.96h-3.14c-.265 1.216-1.203 1.95-2.587 1.95-1.389 0-2.326-.734-2.589-1.95H4.867a.716.716 0 01-.699-.548c-.01-.04-.242-1.019-.158-2.478-.01-1.085.662-2.914 2.185-4.453 1.069-1.083 2.931-2.373 5.71-2.373 4.327 0 6.525 2.447 7.177 3.327.807.131 2.76.636 3.89 2.488zm-20.174 1.22a.72.72 0 010 1.438H1.23a.72.72 0 010-1.438h1.567zm.302-2.4a.72.72 0 010 1.438H.72A.716.716 0 010 11.378c0-.4.323-.72.72-.72H3.1zm1.476-1.647a.72.72 0 01-.72.72H2.007a.72.72 0 010-1.44h1.848c.397-.003.72.32.72.72z" fill="#5CB615" fill-rule="nonzero"/></svg>
